miscellanea/post-modern-icons/src/post-modern/24x24/main/tm_cancel.svg

<?xml version="1.0" encoding="UTF-8" standalone="no"?>
<svg
   xmlns:dc="http://purl.org/dc/elements/1.1/"
   xmlns:cc="http://creativecommons.org/ns#"
   xmlns:rdf="http://www.w3.org/1999/02/22-rdf-syntax-ns#"
   xmlns:svg="http://www.w3.org/2000/svg"
   xmlns="http://www.w3.org/2000/svg"
   xmlns:sodipodi="http://sodipodi.sourceforge.net/DTD/sodipodi-0.dtd"
   xmlns:inkscape="http://www.inkscape.org/namespaces/inkscape"
   width="24"
   height="24"
   viewBox="0 0 24 24"
   fill="none"
   version="1.1"
   id="svg8090"
   sodipodi:docname="tm_cancel.svg"
   inkscape:export-filename="/Users/mgubi/t/devel/qt6/TeXmacs/misc/pixmaps/modern/24x24/main/tm_cancel_x4.png"
   inkscape:export-xdpi="384"
   inkscape:export-ydpi="384"
   inkscape:version="1.0.2 (e86c870879, 2021-01-15)">
  <metadata
     id="metadata8096">
    <rdf:RDF>
      <cc:Work
         rdf:about="">
        <dc:format>image/svg+xml</dc:format>
        <dc:type
           rdf:resource="http://purl.org/dc/dcmitype/StillImage" />
        <dc:title />
      </cc:Work>
    </rdf:RDF>
  </metadata>
  <defs
     id="defs8094" />
  <sodipodi:namedview
     pagecolor="#ffffff"
     bordercolor="#666666"
     borderopacity="1"
     objecttolerance="10"
     gridtolerance="10"
     guidetolerance="10"
     inkscape:pageopacity="0"
     inkscape:pageshadow="2"
     inkscape:window-width="1600"
     inkscape:window-height="836"
     id="namedview8092"
     showgrid="false"
     inkscape:zoom="6.96875"
     inkscape:cx="32.743284"
     inkscape:cy="14.970559"
     inkscape:window-x="0"
     inkscape:window-y="0"
     inkscape:window-maximized="1"
     inkscape:current-layer="svg8090"
     inkscape:document-rotation="0" />
  <path
     d="m 21,12 c 0,4.9706 -4.0294,9 -9,9 -4.97056,0 -9,-4.0294 -9,-9 0,-4.9705598 4.02944,-8.9999998 9,-8.9999998 4.9706,0 9,4.02944 9,8.9999998 z"
     stroke="#4a5568"
     stroke-width="2"
     stroke-linecap="round"
     stroke-linejoin="round"
     id="path8088-3"
     sodipodi:nodetypes="sssss"
     style="stroke-width:1.5;stroke-miterlimit:4;stroke-dasharray:none" />
  <path
     d="m 10,14 2,-2 m 0,0 2,-2 m -2,2 -2,-2 m 2,2 2,2"
     stroke="#4a5568"
     stroke-width="2"
     stroke-linecap="round"
     stroke-linejoin="round"
     id="path8088-6"
     sodipodi:nodetypes="cccccccc"
     style="stroke-width:1.5;stroke-miterlimit:4;stroke-dasharray:none;stroke:#0000c0;stroke-opacity:1" />
</svg>

<?xml version="1.0" encoding="UTF-8" standalone="no"?>
<svg
   xmlns:dc="http://purl.org/dc/elements/1.1/"
   xmlns:cc="http://creativecommons.org/ns#"
   xmlns:rdf="http://www.w3.org/1999/02/22-rdf-syntax-ns#"
   xmlns:svg="http://www.w3.org/2000/svg"
   xmlns="http://www.w3.org/2000/svg"
   xmlns:sodipodi="http://sodipodi.sourceforge.net/DTD/sodipodi-0.dtd"
   xmlns:inkscape="http://www.inkscape.org/namespaces/inkscape"
   width="24"
   height="24"
   viewBox="0 0 24 24"
   fill="none"
   version="1.1"
   id="svg8090"
   sodipodi:docname="tm_cancel.svg"
   inkscape:export-filename="/Users/mgubi/t/devel/qt6/TeXmacs/misc/pixmaps/modern/24x24/main/tm_cancel_x4.png"
   inkscape:export-xdpi="384"
   inkscape:export-ydpi="384"
   inkscape:version="1.0.2 (e86c8708, 2021-01-15)">
  <metadata
     id="metadata8096">
    <rdf:RDF>
      <cc:Work
         rdf:about="">
        <dc:format>image/svg+xml</dc:format>
        <dc:type
           rdf:resource="http://purl.org/dc/dcmitype/StillImage" />
        <dc:title></dc:title>
      </cc:Work>
    </rdf:RDF>
  </metadata>
  <defs
     id="defs8094" />
  <sodipodi:namedview
     pagecolor="#ffffff"
     bordercolor="#666666"
     borderopacity="1"
     objecttolerance="10"
     gridtolerance="10"
     guidetolerance="10"
     inkscape:pageopacity="0"
     inkscape:pageshadow="2"
     inkscape:window-width="776"
     inkscape:window-height="480"
     id="namedview8092"
     showgrid="false"
     inkscape:zoom="27.875"
     inkscape:cx="12"
     inkscape:cy="12"
     inkscape:window-x="0"
     inkscape:window-y="23"
     inkscape:window-maximized="0"
     inkscape:current-layer="svg8090" />
  <path
     d="M10 14L12 12M12 12L14 10M12 12L10 10M12 12L14 14M21 12C21 16.9706 16.9706 21 12 21C7.02944 21 3 16.9706 3 12C3 7.02944 7.02944 3 12 3C16.9706 3 21 7.02944 21 12Z"
     stroke="#4A5568"
     stroke-width="2"
     stroke-linecap="round"
     stroke-linejoin="round"
     id="path8088" />
</svg>
